X: 18040
T: Humours Of Ardara, The
R: reel
M: 4/4
K: Edorian
B2 BA GABG|AF~F2 DEFA|BdBA GABd|eged|BAGE
DBBA GABG|AF~F2 DEFA|BG~G2 AF~F2|1 G/F/E FD EFGA:|2 ~E2EB||
eB~B2 efge|~f2 af bfaf|~g2 gf efge|fddc defd
eB~B2 efge|~f2 af bfaf|bg~g2 af~f2|g/f/e fd|1 e2ef:|2 edBA||

